Origami/48x48/apps/QOwnNotes.svg

<svg width="48" height="48" version="1" xmlns="http://www.w3.org/2000/svg">
 <path d="m42 3c1.108 0 2 0.892 2 2v36c0 1.108-0.892 2-2 2h-22l-16-16v-22c0-1.108 0.892-2 2-2z" style="fill:#303d75"/>
 <path d="m24 9a7.0000011 7.0000011 0 0 0 -7 7 7.0000011 7.0000011 0 0 0 0.08008 1.001953 5.0000008 5.0000008 0 0 0 -0.08008 -0.001953 5.0000008 5.0000008 0 0 0 -5 5 5.0000008 5.0000008 0 0 0 5 5h13a6.0000009 6.0000009 0 0 0 6 -6 6.0000009 6.0000009 0 0 0 -5.068359 -5.921875 7.0000011 7.0000011 0 0 0 -6.931641 -6.078125zm-2e-3 2h2e-3c2.519348 0.0036 4.6174 1.84417 4.949219 4.341797a2.0002 2.0002 0 0 0 1.671875 1.712891c1.958092 0.307772 3.377138 1.965133 3.378906 3.947265-0.001077 2.231865-1.767855 3.998045-4 3.998047h-13c-1.680541-2e-6 -2.999998-1.319459-3-3-2e-6 -1.680544 1.319456-2.999998 3-3 2e-3 7e-5 0.0039-7.4e-5 0.0059 0a2.0002 2.0002 0 0 0 2.050782 -2.300781c-0.035692-0.233023-0.054262-0.46742-0.056682-0.703125 0.002129-2.782558 2.215214-4.995034 4.998047-4.996094z" style="opacity:.2"/>
 <path d="m24 8a7.0000011 7.0000011 0 0 0 -7 7 7.0000011 7.0000011 0 0 0 0.08008 1.001953 5.0000008 5.0000008 0 0 0 -0.08008 -0.001953 5.0000008 5.0000008 0 0 0 -5 5 5.0000008 5.0000008 0 0 0 5 5h13a6.0000009 6.0000009 0 0 0 6 -6 6.0000009 6.0000009 0 0 0 -5.068359 -5.921875 7.0000011 7.0000011 0 0 0 -6.931641 -6.078125zm-2e-3 2h2e-3c2.519348 0.0036 4.6174 1.84417 4.949219 4.341797a2.0002 2.0002 0 0 0 1.671875 1.712891c1.958092 0.307772 3.377138 1.965133 3.378906 3.947265-0.001077 2.231865-1.767855 3.998045-4 3.998047h-13c-1.680541-2e-6 -2.999998-1.319459-3-3-2e-6 -1.680544 1.319456-2.999998 3-3 2e-3 7e-5 0.0039-7.4e-5 0.0059 0a2.0002 2.0002 0 0 0 2.050782 -2.300781c-0.035692-0.233023-0.054262-0.46742-0.056682-0.703125 0.002129-2.782558 2.215214-4.995034 4.998047-4.996094z" style="fill:#5d8cb9"/>
 <path d="m4 27h14c1.1046 0 2 0.89544 2 2v14z" style="fill:#44559e"/>
 <path d="m42 3c1.108 0 2 0.892 2 2v1c0-1.108-0.892-2-2-2h-36c-1.108 0-2 0.892-2 2v-1c0-1.108 0.892-2 2-2z" style="fill:#ffffff;opacity:.1"/>
 <path d="m18 27c1.1046 0 2 0.89544 2 2v1c0-1.1046-0.89543-2-2-2h-13l-1-1h14z" style="fill:#ffffff;opacity:.1"/>
 <path d="m5.995 28.995 14.005 14.005h22c1.108 0 2-0.892 2-2v1c0 1.108-0.892 2-2 2h-22l-14.972-14.972z" style="opacity:.2"/>
</svg>

<svg xmlns="http://www.w3.org/2000/svg" width="48" height="48" version="1">
 <path style="fill:#303d75" d="m 42,3 c 1.108,0 2,0.892 2,2 l 0,36 c 0,1.108 -0.892,2 -2,2 L 20,43 4,27 4,5 C 4,3.892 4.892,3 6,3 Z"/>
 <path style="opacity:0.2" d="m 24,9 a 7.0000011,7.0000011 0 0 0 -7,7 7.0000011,7.0000011 0 0 0 0.08008,1.001953 A 5.0000008,5.0000008 0 0 0 17,17 a 5.0000008,5.0000008 0 0 0 -5,5 5.0000008,5.0000008 0 0 0 5,5 l 13,0 A 6.0000009,6.0000009 0 0 0 36,21 6.0000009,6.0000009 0 0 0 30.931641,15.078125 7.0000011,7.0000011 0 0 0 24,9 Z M 23.998,11 24,11 c 2.519348,0.0036 4.6174,1.84417 4.949219,4.341797 a 2.0002,2.0002 0 0 0 1.671875,1.712891 C 32.579186,17.36246 33.998232,19.019821 34,21.001953 33.998923,23.233818 32.232145,24.999998 30,25 l -13,0 c -1.680541,-2e-6 -2.999998,-1.319459 -3,-3 -2e-6,-1.680544 1.319456,-2.999998 3,-3 0.002,7e-5 0.0039,-7.4e-5 0.0059,0 a 2.0002,2.0002 0 0 0 2.050782,-2.300781 C 19.02099,16.466196 19.00242,16.231799 19,15.996094 19.002129,13.213536 21.215214,11.00106 23.998047,11 Z"/>
 <path style="fill:#5d8cb9" d="m 24,8 a 7.0000011,7.0000011 0 0 0 -7,7 7.0000011,7.0000011 0 0 0 0.08008,1.001953 A 5.0000008,5.0000008 0 0 0 17,16 a 5.0000008,5.0000008 0 0 0 -5,5 5.0000008,5.0000008 0 0 0 5,5 l 13,0 A 6.0000009,6.0000009 0 0 0 36,20 6.0000009,6.0000009 0 0 0 30.931641,14.078125 7.0000011,7.0000011 0 0 0 24,8 Z M 23.998,10 24,10 c 2.519348,0.0036 4.6174,1.84417 4.949219,4.341797 a 2.0002,2.0002 0 0 0 1.671875,1.712891 C 32.579186,16.36246 33.998232,18.019821 34,20.001953 33.998923,22.233818 32.232145,23.999998 30,24 l -13,0 c -1.680541,-2e-6 -2.999998,-1.319459 -3,-3 -2e-6,-1.680544 1.319456,-2.999998 3,-3 0.002,7e-5 0.0039,-7.4e-5 0.0059,0 a 2.0002,2.0002 0 0 0 2.050782,-2.300781 C 19.02099,15.466196 19.00242,15.231799 19,14.996094 19.002129,12.213536 21.215214,10.00106 23.998047,10 Z"/>
 <path style="fill:#44559e" d="m 4,27 14,0 c 1.1046,0 2,0.89544 2,2 l 0,14 z"/>
 <path style="opacity:0.1;fill:#ffffff" d="m 42,3 c 1.108,0 2,0.892 2,2 l 0,1 C 44,4.892 43.108,4 42,4 L 6,4 C 4.892,4 4,4.892 4,6 L 4,5 C 4,3.892 4.892,3 6,3 Z"/>
 <path style="opacity:0.1;fill:#ffffff" d="m 18,27 c 1.1046,0 2,0.89544 2,2 l 0,1 c 0,-1.1046 -0.89543,-2 -2,-2 L 5,28 4,27 18,27 Z"/>
 <path style="opacity:0.2" d="M 5.995,28.995 20,43 42,43 c 1.108,0 2,-0.892 2,-2 l 0,1 c 0,1.108 -0.892,2 -2,2 L 20,44 5.028,29.028 Z"/>
</svg>
